X:1
T:Midnight in Moscow   
L:1/4
M:4/4
K:Dm
"Dm"D F A F|"Gm"G2 FE|"A7"A2 G2|"Dm"D2 z2|
"F"F A c c|"Gm7"d2 "C7"cB|"F"A4|"E7"=B2 "A7"^c2|
"Dm"edA2|zFED|"Gm"AG B2-|B2 cB|
"Dm"A2 GF|"A7"AGFE|"Dm"D2 A2|"E7"=B2 "A7"^c2|
"Dm"ed A2|z FED|"Gm"AG B2-|B2 cB|
"Dm"A2 GF|"A7"A2 G2|"Dm"D4|z4|]
